X:125
T:Neapolitian Waltz, The
S:John Moore's Book 2
Z:Transcribed by Edmund Spriggs 05/2021
%%VWML: Moore1-4494-p96-0
F:http://www.vwml.org/record/Moore2/4494/p96
M:3/4
N:The tune runs over to page 97.
N:Volta brackets are required at the end of the first and second strains.
N:The last note of the third strain should be dotted.
L:1/8
K:C
c>de>fg>a|a>gg>^fg2|a>ge>ce>g|gfd4|
c>de>fg>a|a>gg>^fg2|c'>ge>cd>B|c4:|
|:G|g3gec|gfd4|c/d/c/B/ cegc'|bc'd'bg2|
g3gec|gfd4|cdefgc|c4:|
|:gGeGcG|gGeGcG|dGBGBG|cGEGce|
gGeGcG|gGeGcG|dGBGBG|c4:|

